svg/LeftHanded/se-resize.svg

<?xml version="1.0" encoding="UTF-8" standalone="no"?>
<!-- Created with Inkscape (http://www.inkscape.org/) -->
<svg
   xmlns:svg="http://www.w3.org/2000/svg"
   xmlns="http://www.w3.org/2000/svg"
   xmlns:xlink="http://www.w3.org/1999/xlink"
   version="1.0"
   width="500"
   height="500"
   viewBox="0 0 1000 1000"
   id="page"
   xml:space="preserve"><defs
     id="defs38"><linearGradient
       id="linearGradient2218"><stop
         id="stop2220"
         style="stop-color:#999999;stop-opacity:1"
         offset="0" /><stop
         id="stop2222"
         style="stop-color:#555555;stop-opacity:1"
         offset="1" /></linearGradient><linearGradient
       x1="303.29138"
       y1="115.33563"
       x2="303.29138"
       y2="508.32028"
       id="linearGradient4206"
       xlink:href="#linearGradient2218"
       gradientUnits="userSpaceOnUse"
       gradientTransform="translate(-6.324404e-6,1.1845489e-5)" /></defs><path
     d="M 444.64027,167.46512 C 464.83827,167.85012 582.58227,321.16412 599.83827,320.85112 C 618.58227,321.16412 599.54827,140.13312 608.83827,131.85012 C 618.58227,123.16412 672.58227,123.16412 680.83827,131.85012 C 690.58227,141.16412 686.78927,481.60012 679.64127,489.46512 C 669.63927,500.46712 330.58227,501.16412 320.83827,491.85212 C 309.11727,480.64712 312.58227,429.16512 320.83827,419.85212 C 330.58227,411.16512 510.58227,429.16512 509.83827,410.85212 C 510.58127,393.16512 356.83827,275.85212 354.63827,257.46812 C 357.58227,222.16412 411.58227,168.16512 444.64027,167.46512 z"
     id="path4191"
     style="opacity:1;fill:url(#linearGradient4206);fill-opacity:1;stroke:#000000;stroke-width:20;stroke-linecap:round;stroke-linejoin:round;stroke-miterlimit:1" /></svg>

<?xml version="1.0" encoding="UTF-8" standalone="no"?>
<!-- Created with Inkscape (http://www.inkscape.org/) -->

<svg
   xmlns:dc="http://purl.org/dc/elements/1.1/"
   xmlns:cc="http://creativecommons.org/ns#"
   xmlns:rdf="http://www.w3.org/1999/02/22-rdf-syntax-ns#"
   xmlns:svg="http://www.w3.org/2000/svg"
   xmlns="http://www.w3.org/2000/svg"
   xmlns:xlink="http://www.w3.org/1999/xlink"
   version="1.0"
   width="500"
   height="500"
   viewBox="0 0 1000 1000"
   id="page"
   xml:space="preserve"><metadata
     id="metadata11"><rdf:RDF><cc:Work
         rdf:about=""><dc:format>image/svg+xml</dc:format><dc:type
           rdf:resource="http://purl.org/dc/dcmitype/StillImage" /><dc:title></dc:title></cc:Work></rdf:RDF></metadata><defs
     id="defs38"><linearGradient
       id="linearGradient2218"><stop
         id="stop2220"
         style="stop-color:#999999;stop-opacity:1"
         offset="0" /><stop
         id="stop2222"
         style="stop-color:#555555;stop-opacity:1"
         offset="1" /></linearGradient><linearGradient
       x1="303.29138"
       y1="115.33563"
       x2="303.29138"
       y2="508.32028"
       id="linearGradient4206"
       xlink:href="#linearGradient2218"
       gradientUnits="userSpaceOnUse"
       gradientTransform="translate(-6.324404e-6,1.1845489e-5)" /><linearGradient
       x1="303.29138"
       y1="115.33563"
       x2="303.29138"
       y2="508.32028"
       id="linearGradient4206-6"
       xlink:href="#linearGradient2218-5"
       gradientUnits="userSpaceOnUse"
       gradientTransform="translate(-6.324404e-6,1.1845489e-5)" /><linearGradient
       id="linearGradient2218-5"><stop
         id="stop2220-7"
         style="stop-color:#999999;stop-opacity:1"
         offset="0" /><stop
         id="stop2222-5"
         style="stop-color:#555555;stop-opacity:1"
         offset="1" /></linearGradient><filter
       x="-0.23986097"
       y="-0.24013919"
       width="1.4797219"
       height="1.4802784"
       color-interpolation-filters="sRGB"
       id="filter3790"><feGaussianBlur
         id="feGaussianBlur3792"
         stdDeviation="37.320093" /></filter></defs><path
     d="m 643.79282,758.17954 c 20.198,0.385 137.942,153.699 155.198,153.386 18.744,0.313 -0.29,-180.718 9,-189.001 9.744,-8.686 63.744,-8.686 72,0 9.744,9.314 5.951,349.74996 -1.197,357.61496 -10.002,11.002 -349.059,11.699 -358.803,2.387 -11.721,-11.205 -8.256,-62.687 0,-72 9.744,-8.687 189.744,9.313 189,-9 0.743,-17.68696 -153,-134.99996 -155.2,-153.38396 2.944,-35.304 56.944,-89.303 90.002,-90.003 z"
     transform="matrix(1.2,0,0,1.2,-338.98306,-651.22287)"
     id="path4191-9"
     style="opacity:0.15;fill:#111111;fill-opacity:1;stroke:none;filter:url(#filter3790)" /><path
     d="m 444.64027,167.46512 c 20.198,0.385 137.942,153.699 155.198,153.386 18.744,0.313 -0.29,-180.718 9,-189.001 9.744,-8.686 63.744,-8.686 72,0 9.744,9.314 5.951,349.75 -1.197,357.615 -10.002,11.002 -349.059,11.699 -358.803,2.387 -11.721,-11.205 -8.256,-62.687 0,-72 9.744,-8.687 189.744,9.313 189,-9 0.743,-17.687 -153,-135 -155.2,-153.384 2.944,-35.304 56.944,-89.303 90.002,-90.003 z"
     id="path4191"
     style="opacity:0.75;fill:url(#linearGradient4206);fill-opacity:1;stroke:#000000;stroke-width:20;stroke-linecap:round;stroke-linejoin:round;stroke-miterlimit:1" /></svg>
